X:1
L:1/8
Q:1/4=120
M:2/2
K:D
""^Quick"" a^g | a_af(d d)efg | a_af(d d)ded | =f e2 (d d)ded | =f e2 (d d)AcB | 
[M:6/4] c a2 (c a4- a2) (^B2 |[M:2/2] c) a2 (^e f)dAF | (d2 d)ABF |1 d6 :|2 d6 ^E |: F A2 B =cABA | 
 F A2 (B cB)AF | GBde =fded | B d2 e =fecB | [Fd]6 cB |[M:6/4] c a2 (c a4- a2) (^B2 | 
[M:2/2] c2) a4 (e2 f2) d2 A2 F2 | (d8 d2) A2 B2 F2 |1 [Fd]8- [Fd]2 A2 B2 A2 :|2 [Fd]12 ||
